X:1
T:Gladiat:or -- Reel
R:reel
C:G.L.TRACY
B:Ryan's Mammoth Collection
N:286
Z: Contributed by Ray Davies,  ray:davies99.freeserve.co.uk
M:2/4
L:1/16
K:G
uD2"^Segno"|\
G2(GA) BAGB | .c2.e2 .g3e | d2(Bd) cBAc | BAGB .A2.D2 |
G2(GA) BAGB | .c2.e2 g3e | d2(Bd) cBAG | FDEF G2H:|
|:vFA|\
d2(^cd) Bd^cB | AFGA B^cde | f2(ef) d2(fe) | dB^c^A B=AFA |
d2(^cd) BdcB | AFGA B^cde | \
f2(ef) dkf2e |1 dB^c^A B2:|2 dB^c^A B=cB=A "^Segno"|]
